img/icons/clip.svg

<svg width="24" height="24" viewBox="0 0 24 24" fill="none" xmlns="http://www.w3.org/2000/svg">
<path d="M14.5478 0.169127L1.83061 12.8879C0.610727 14.1078 0 15.7082 0 17.3071C0 18.9075 0.60916 20.5079 1.82905 21.7262C3.04737 22.9461 4.64779 23.5553 6.24978 23.5553C7.84863 23.5553 9.45061 22.9461 10.6705 21.7262L22.6282 9.76693C23.5427 8.85397 24 7.65288 24 6.45335C24 5.25225 23.5427 4.05116 22.6298 3.13663C21.7153 2.22368 20.5142 1.76641 19.3131 1.76641C18.112 1.76641 16.9124 2.22368 15.9979 3.13663L5.66254 13.4736C5.0706 14.0655 4.77463 14.8438 4.77463 15.6236C4.77463 16.4019 5.0706 17.1818 5.66254 17.7737C6.25447 18.3657 7.03275 18.6616 7.81104 18.6616C8.58932 18.6616 9.36761 18.3641 9.95954 17.7722L19.0061 8.72557C19.1189 8.61282 19.1753 8.46405 19.1753 8.31685C19.1753 8.16809 19.1189 8.01932 19.0061 7.90657C18.8918 7.79382 18.743 7.73588 18.5958 7.73588C18.4471 7.73744 18.2983 7.79382 18.1856 7.90657L9.13741 16.9532C8.77254 17.318 8.29023 17.5012 7.81104 17.5012C7.33029 17.5012 6.84954 17.318 6.48467 16.9532C6.11667 16.5851 5.93345 16.1044 5.93345 15.6236C5.93345 15.1429 6.11667 14.6606 6.4831 14.2941L16.82 3.95563C17.5075 3.26974 18.4111 2.92679 19.3146 2.92679C20.2166 2.92523 21.1202 3.26817 21.8076 3.95563L21.8092 3.9572C22.4967 4.64466 22.8412 5.54822 22.8412 6.45178C22.8412 7.35534 22.4967 8.25891 21.8092 8.94637L9.84993 20.9072C8.85711 21.8985 7.55266 22.3965 6.24821 22.3965C4.94532 22.3949 3.64088 21.8985 2.64805 20.9072L2.64649 20.9056C1.65523 19.9128 1.15882 18.6084 1.15882 17.3071C1.16038 16.0042 1.65523 14.6997 2.64649 13.7085L15.3668 0.989692C15.4796 0.876942 15.536 0.728176 15.536 0.579409C15.536 0.430643 15.4796 0.281877 15.3668 0.169127C15.2541 0.0563775 15.1053 0 14.9565 0C14.8078 0 14.6606 0.0563775 14.5478 0.169127Z" fill="#222126" fill-opacity="0.5"/>
</svg>

<svg width="24" height="24" fill="none" xmlns="http://www.w3.org/2000/svg"><path d="M14.548.17 1.83 12.887A6.232 6.232 0 0 0 0 17.308c0 1.6.61 3.2 1.829 4.418a6.226 6.226 0 0 0 4.42 1.83c1.6 0 3.202-.61 4.422-1.83l11.957-11.96A4.669 4.669 0 0 0 24 6.454a4.681 4.681 0 0 0-4.687-4.687c-1.201 0-2.4.458-3.315 1.37L5.663 13.475a3.03 3.03 0 0 0-.888 2.15 3.033 3.033 0 0 0 3.036 3.038 3.03 3.03 0 0 0 2.149-.89l9.046-9.046a.577.577 0 0 0 0-.82.586.586 0 0 0-.41-.17.587.587 0 0 0-.41.17l-9.049 9.047a1.874 1.874 0 0 1-1.326.548 1.874 1.874 0 0 1-1.878-1.878c0-.48.184-.962.55-1.329L16.82 3.956a3.521 3.521 0 0 1 2.495-1.03 3.507 3.507 0 0 1 2.493 1.03l.001.001a3.518 3.518 0 0 1 1.032 2.495c0 .903-.344 1.807-1.032 2.494L9.85 20.907a5.084 5.084 0 0 1-3.6 1.49 5.09 5.09 0 0 1-3.6-1.49l-.003-.001a5.08 5.08 0 0 1-1.487-3.599 5.082 5.082 0 0 1 1.487-3.598L15.366.989a.578.578 0 0 0 0-.82.578.578 0 0 0-.818 0Z" fill="#222126" fill-opacity=".5"/></svg>
